icon/lg/codesandbox.svg

<?xml version="1.0" encoding="UTF-8"?>
<svg viewBox="0 0 512 73" version="1.1" xmlns="http://www.w3.org/2000/svg" preserveAspectRatio="xMidYMid" height="1em" width="1em">
  <g>
    <path d="M72.3306636,0 L72.3306636,72.3306636 L0,72.3306636 L0,0 L72.3306636,0 Z M64.9332094,7.39745424 L7.39745424,7.39745424 L7.39745424,64.9332094 L64.9332094,64.9332094 L64.9332094,7.39745424 Z" fill="#000000"/>
    <path d="M147.266875,42.5326495 L139.475712,42.5326495 C138.343901,49.5909715 133.616106,53.6527492 127.09073,53.6527492 C118.434064,53.6527492 112.77419,46.927477 112.77419,36.2068398 C112.77419,25.6194389 118.234333,18.7609303 126.62469,18.7609303 C133.416375,18.7609303 137.877862,22.7562131 139.142826,29.9476071 L146.933168,29.9476071 C145.401895,19.4267833 136.945783,12.5682747 126.358382,12.5682747 C113.639692,12.5682747 104.849872,23.0890985 104.849872,36.2068398 C104.849872,49.7241257 113.839423,59.8454048 126.558113,59.8454048 C137.145514,59.8454048 145.668203,53.0534733 147.266875,42.5326495 Z M183.015484,42.5326495 C183.015484,33.5433453 176.822171,25.2198941 166.700809,25.2198941 C156.58027,25.2198941 150.386957,33.5433453 150.386957,42.5326495 C150.386957,51.5219536 156.58027,59.8454048 166.700809,59.8454048 C176.822171,59.8454048 183.015484,51.5219536 183.015484,42.5326495 Z M158.044966,42.5326495 C158.044966,35.4078325 161.174089,30.6135424 166.700809,30.6135424 C172.294929,30.6135424 175.424052,35.4078325 175.424052,42.5326495 C175.424052,49.5909715 172.294929,54.4518387 166.700809,54.4518387 C161.174089,54.4518387 158.044966,49.5909715 158.044966,42.5326495 Z M211.338692,52.1878067 L211.138961,52.1878067 C209.541111,56.7823655 205.678818,59.8454048 200.618137,59.8454048 C191.562009,59.8454048 186.634483,51.8549213 186.634483,42.5326495 C186.634483,33.2103776 191.76174,25.2198941 200.618137,25.2198941 C205.678818,25.2198941 209.541111,28.2163563 211.138961,32.8109151 L211.338692,32.8109151 L211.338692,13.2341278 L218.463262,13.2341278 L218.463262,59.1795517 L211.338692,59.1795517 L211.338692,52.1878067 Z M202.948335,30.6135424 C197.421615,30.6135424 194.292492,35.4078325 194.292492,42.5326495 C194.292492,49.5909715 197.421615,54.4518387 202.948335,54.4518387 C208.542454,54.4518387 211.605,49.5909715 211.605,42.5326495 C211.605,35.4078325 208.542454,30.6135424 202.948335,30.6135424 Z M254.285024,48.8584592 L247.027299,48.8584592 C246.228374,51.5219536 244.363394,54.4518387 240.035061,54.4518387 C234.97438,54.4518387 231.445795,50.9226777 231.112909,44.8632585 L254.884217,44.8632585 C255.882874,33.2770369 249.357497,25.2198941 239.435867,25.2198941 C229.514237,25.2198941 223.854363,33.343614 223.854363,42.5326495 C223.854363,51.7217671 229.647391,59.8454048 239.569021,59.8454048 C247.69307,59.8454048 252.886905,55.4506594 254.285024,48.8584592 Z M239.435867,30.6135424 C244.296816,30.6135424 247.160453,34.0760442 247.626493,39.4696102 L231.179486,39.4696102 C231.645526,34.0760442 234.574918,30.6135424 239.435867,30.6135424 Z M275.496158,30.9469609 L282.98057,32.744338 C291.637236,34.7418972 295.965568,39.269879 295.965568,46.5279323 C295.965568,54.1854481 288.507291,59.8454048 277.853313,59.8454048 C265.668062,59.8454048 259.076108,51.3222224 258.342938,42.9987713 L266.134101,42.9987713 C266.600141,48.9916133 271.46109,53.6527492 277.91989,53.6527492 C283.779496,53.6527492 288.107828,51.1224089 288.107828,46.8608177 C288.107828,43.1319254 285.31159,41.134284 279.384586,39.7360008 L272.726055,38.2044812 C263.736504,36.0736856 259.275839,31.8786715 259.275839,25.4862847 C259.275839,17.7621096 266.866449,12.5682747 276.122308,12.5682747 C287.84152,12.5682747 293.83428,18.9606615 294.633205,26.8845679 L286.842863,26.8845679 C286.24367,21.4244248 281.649029,18.7609303 276.255463,18.7609303 C270.995051,18.7609303 267.199335,21.02488 267.199335,24.9535858 C267.199335,27.6920001 268.984022,29.1558355 273.980092,30.5496066 L275.496158,30.9469609 L275.496158,30.9469609 Z M323.973974,52.1878067 L324.173705,52.1878067 L324.173705,59.1795517 L331.298276,59.1795517 L331.298276,25.8858294 L324.173705,25.8858294 L324.173705,32.8109151 L323.973974,32.8109151 C322.375302,28.2163563 318.513009,25.2198941 313.452328,25.2198941 C304.596754,25.2198941 299.469496,33.2103776 299.469496,42.5326495 C299.469496,51.8549213 304.397022,59.8454048 313.452328,59.8454048 C318.513009,59.8454048 322.375302,56.7823655 323.973974,52.1878067 Z M307.126683,42.5326495 C307.126683,35.4078325 310.323205,30.6135424 315.716771,30.6135424 C321.110337,30.6135424 324.440014,35.4078325 324.440014,42.5326495 C324.440014,49.5909715 321.110337,54.4518387 315.716771,54.4518387 C310.389782,54.4518387 307.126683,49.5909715 307.126683,42.5326495 Z M345.812081,39.2033019 L345.812081,59.1795517 L338.553534,59.1795517 L338.553534,25.8858294 L345.611528,25.8858294 L345.611528,32.4113704 L345.744682,32.4113704 C347.143623,27.7502345 350.605631,25.2198941 355.466581,25.2198941 C362.791704,25.2198941 366.386867,30.2139977 366.386867,37.5386281 L366.386867,59.1795517 L359.129142,59.1795517 L359.129142,39.6694237 C359.129142,33.4767682 356.932098,30.6801195 352.470612,30.6801195 C348.009125,30.6801195 345.812081,33.7430765 345.812081,39.2033019 Z M396.075317,52.1878067 L396.275048,52.1878067 L396.275048,59.1795517 L403.399618,59.1795517 L403.399618,13.2341278 L396.275048,13.2341278 L396.275048,32.8109151 L396.075317,32.8109151 C394.477467,28.2163563 390.615173,25.2198941 385.554493,25.2198941 C376.698096,25.2198941 371.570838,33.2103776 371.570838,42.5326495 C371.570838,51.8549213 376.498365,59.8454048 385.554493,59.8454048 C390.615173,59.8454048 394.477467,56.7823655 396.075317,52.1878067 Z M379.228848,42.5326495 C379.228848,35.4078325 382.357971,30.6135424 387.884691,30.6135424 C393.47881,30.6135424 396.541356,35.4078325 396.541356,42.5326495 C396.541356,49.5909715 393.47881,54.4518387 387.884691,54.4518387 C382.357971,54.4518387 379.228848,49.5909715 379.228848,42.5326495 Z M428.500824,25.2198941 C437.357221,25.2198941 442.484479,33.2103776 442.484479,42.5326495 C442.484479,51.8549213 437.556952,59.8454048 428.500824,59.8454048 C423.440144,59.8454048 419.577851,56.7823655 417.980001,52.1878067 L417.780269,52.1878067 L417.780269,59.1795517 L410.655699,59.1795517 L410.655699,13.2341278 L417.780269,13.2341278 L417.780269,32.8109151 L417.980001,32.8109151 C419.577851,28.2163563 423.440144,25.2198941 428.500824,25.2198941 Z M426.170626,30.6135424 C420.577329,30.6135424 417.513961,35.4078325 417.513961,42.5326495 C417.513961,49.5909715 420.577329,54.4518387 426.170626,54.4518387 C431.697347,54.4518387 434.82647,49.5909715 434.82647,42.5326495 C434.82647,35.4078325 431.697347,30.6135424 426.170626,30.6135424 Z M462.455961,25.2198941 C472.577323,25.2198941 478.770636,33.5433453 478.770636,42.5326495 C478.770636,51.5219536 472.577323,59.8454048 462.455961,59.8454048 C452.3346,59.8454048 446.142109,51.5219536 446.142109,42.5326495 C446.142109,33.5433453 452.3346,25.2198941 462.455961,25.2198941 Z M487.828407,25.8858294 L495.020377,36.2734168 L502.211524,25.8858294 L510.335573,25.8858294 L499.282132,41.2009433 L512,59.1795517 L503.875951,59.1795517 L495.020377,46.2615417 L486.16398,59.1795517 L477.974176,59.1795517 L490.758621,41.2675204 L479.638604,25.8858294 L487.828407,25.8858294 Z M462.455961,30.6135424 C456.929241,30.6135424 453.800118,35.4078325 453.800118,42.5326495 C453.800118,49.5909715 456.929241,54.4518387 462.455961,54.4518387 C468.049259,54.4518387 471.179204,49.5909715 471.179204,42.5326495 C471.179204,35.4078325 468.049259,30.6135424 462.455961,30.6135424 Z" fill="#000000"/>
  </g>
</svg>

<svg width="512" height="73" xmlns="http://www.w3.org/2000/svg" preserveAspectRatio="xMidYMid"><path d="M72.33 0v72.33H0V0h72.33Zm-7.397 7.397H7.397v57.536h57.536V7.397ZM147.267 42.533h-7.791c-1.132 7.058-5.86 11.12-12.385 11.12-8.657 0-14.317-6.726-14.317-17.446 0-10.588 5.46-17.446 13.85-17.446 6.792 0 11.254 3.995 12.519 11.187h7.79c-1.531-10.521-9.987-17.38-20.575-17.38-12.718 0-21.508 10.521-21.508 23.639 0 13.517 8.99 23.638 21.708 23.638 10.588 0 19.11-6.792 20.709-17.312Zm35.748 0c0-8.99-6.193-17.313-16.314-17.313-10.12 0-16.314 8.323-16.314 17.313 0 8.989 6.193 17.312 16.314 17.312s16.314-8.323 16.314-17.312Zm-24.97 0c0-7.125 3.13-11.92 8.656-11.92 5.594 0 8.723 4.795 8.723 11.92 0 7.058-3.13 11.919-8.723 11.919-5.527 0-8.656-4.861-8.656-11.92Zm53.294 9.655h-.2c-1.598 4.594-5.46 7.657-10.52 7.657-9.057 0-13.985-7.99-13.985-17.312 0-9.323 5.128-17.313 13.984-17.313 5.06 0 8.923 2.996 10.521 7.59h.2V13.235h7.124V59.18h-7.124v-6.992Zm-8.39-21.574c-5.527 0-8.657 4.794-8.657 11.919 0 7.058 3.13 11.919 8.656 11.919 5.594 0 8.657-4.861 8.657-11.92 0-7.124-3.063-11.918-8.657-11.918Zm51.336 18.244h-7.258c-.799 2.664-2.664 5.594-6.992 5.594-5.06 0-8.59-3.53-8.922-9.589h23.771c.999-11.586-5.527-19.643-15.448-19.643-9.922 0-15.582 8.124-15.582 17.313 0 9.189 5.793 17.312 15.715 17.312 8.124 0 13.318-4.394 14.716-10.987Zm-14.85-18.244c4.862 0 7.725 3.462 8.191 8.856H231.18c.467-5.394 3.396-8.856 8.257-8.856Zm36.061.333 7.485 1.797c8.656 1.998 12.985 6.526 12.985 13.784 0 7.657-7.459 13.317-18.113 13.317-12.185 0-18.777-8.523-19.51-16.846h7.791c.466 5.993 5.327 10.654 11.786 10.654 5.86 0 10.188-2.53 10.188-6.792 0-3.73-2.796-5.727-8.723-7.125l-6.659-1.532c-8.99-2.13-13.45-6.325-13.45-12.718 0-7.724 7.59-12.918 16.846-12.918 11.72 0 17.712 6.393 18.511 14.317h-7.79c-.6-5.46-5.194-8.124-10.588-8.124-5.26 0-9.056 2.264-9.056 6.193 0 2.738 1.785 4.202 6.781 5.596l1.516.397Zm48.478 21.24h.2v6.993h7.124V25.886h-7.124v6.925h-.2c-1.599-4.595-5.461-7.591-10.522-7.591-8.855 0-13.983 7.99-13.983 17.313 0 9.322 4.928 17.312 13.983 17.312 5.061 0 8.923-3.063 10.522-7.657Zm-16.847-9.654c0-7.125 3.196-11.92 8.59-11.92 5.393 0 8.723 4.795 8.723 11.92 0 7.058-3.33 11.919-8.723 11.919-5.327 0-8.59-4.861-8.59-11.92Zm38.685-3.33V59.18h-7.258V25.886h7.058v6.525h.133c1.399-4.66 4.86-7.191 9.722-7.191 7.325 0 10.92 4.994 10.92 12.319v21.64h-7.258V39.67c0-6.192-2.197-8.989-6.658-8.989-4.462 0-6.659 3.063-6.659 8.523Zm50.263 12.985h.2v6.992h7.125V13.234h-7.125v19.577h-.2c-1.598-4.595-5.46-7.591-10.52-7.591-8.857 0-13.984 7.99-13.984 17.313 0 9.322 4.927 17.312 13.983 17.312 5.061 0 8.923-3.063 10.521-7.657Zm-16.846-9.655c0-7.125 3.129-11.92 8.656-11.92 5.594 0 8.656 4.795 8.656 11.92 0 7.058-3.062 11.919-8.656 11.919-5.527 0-8.656-4.861-8.656-11.92ZM428.5 25.22c8.856 0 13.983 7.99 13.983 17.313 0 9.322-4.927 17.312-13.983 17.312-5.06 0-8.923-3.063-10.521-7.657h-.2v6.992h-7.124V13.234h7.124v19.577h.2c1.598-4.595 5.46-7.591 10.52-7.591Zm-2.33 5.394c-5.594 0-8.657 4.794-8.657 11.919 0 7.058 3.063 11.919 8.657 11.919 5.526 0 8.655-4.861 8.655-11.92 0-7.124-3.129-11.918-8.655-11.918Zm36.285-5.394c10.121 0 16.315 8.323 16.315 17.313 0 8.989-6.194 17.312-16.315 17.312-10.121 0-16.314-8.323-16.314-17.312 0-8.99 6.193-17.313 16.314-17.313Zm25.372.666 7.192 10.387 7.192-10.387h8.124L499.282 41.2 512 59.18h-8.124l-8.856-12.918-8.856 12.918h-8.19l12.785-17.912-11.12-15.382h8.19Zm-25.372 4.728c-5.527 0-8.656 4.794-8.656 11.919 0 7.058 3.13 11.919 8.656 11.919 5.593 0 8.723-4.861 8.723-11.92 0-7.124-3.13-11.918-8.723-11.918Z"/></svg>
